public/svgs/logo.svg

<svg viewBox="0 0 106 62" fill="none" xmlns="http://www.w3.org/2000/svg">
    <path d="M98.6035 18.943C94.7777 15.1032 90.0847 12.7993 85.1367 11.929C77.5361 10.6491 64.3754 10.8026 64.3754 10.8026C71.0577 8.49876 78.9134 9.57391 78.9134 9.57391C72.384 6.65566 59.3763 8.70355 59.3763 8.70355C65.3956 7.06523 69.1703 6.86045 74.7815 7.52601C74.7815 7.52601 68.3032 4.60776 56.0606 6.55326C54.8874 6.70686 53.8672 8.03798 53.204 8.49876C51.5717 9.5739 50.2964 10.0347 48.409 9.31792C47.4909 8.95954 46.5216 8.65235 45.3994 8.24277C46.3686 7.32122 47.4398 7.16763 48.6131 7.32122C49.4803 7.42362 50.4495 7.32122 51.2656 7.16763C52.6939 6.86045 53.4081 5.8877 55.2445 5.7853C55.2445 5.7853 58.6622 5.7853 61.8248 5.58051C64.9875 5.42692 67.589 3.7886 68.6602 3.07184C64.0183 3.02064 59.7844 4.60776 54.9384 4.55657C59.8354 4.24938 62.59 2.76466 66.0587 0C62.641 1.27993 60.6006 2.91825 56.7748 2.96945C54.6323 3.02065 52.4389 3.53262 50.3985 3.9422C48.7151 4.24938 47.3888 6.09249 45.8075 6.80925C44.1241 7.52601 42.4408 7.11643 41.3186 5.93889C39.8393 7.47482 39.7883 9.26672 41.0125 10.9562C41.4716 10.3419 42.0327 9.6763 42.7469 8.85714C43.206 9.6251 43.512 9.98348 43.7161 10.2907C45.1444 9.52271 47.1338 10.0347 48.103 11.3146C48.7661 12.1338 48.103 12.4922 47.6439 12.8505C45.7565 14.2329 44.7873 13.8745 43.9201 13.0041L43.257 14.54L41.2165 14.4889L44.9403 18.2775L45.0934 16.7927L46.8277 16.7415C47.4908 15.2056 49.1742 15.052 50.3474 15.564C51.5717 16.1272 52.3879 17.5607 53.3061 18.5334C53.3571 18.4311 53.4081 18.1239 53.4591 17.7655C54.0202 15.9736 55.3465 15.6152 56.7238 16.8439L58.8152 18.8918C60.0395 20.0694 60.0905 22.0661 58.9172 23.2948L45.4504 36.8109L45.3484 36.9133L35.2483 46.948C29.6371 52.5797 20.5063 52.5797 14.9461 46.948C9.33493 41.3163 9.33493 32.1519 14.9461 26.5714C17.7517 23.7556 21.4244 22.3732 25.0972 22.3732C28.77 22.3732 32.4427 23.7556 35.2483 26.5714L43.0529 34.4046L50.6025 26.8274L42.7979 18.9942C33.0038 9.16433 17.0885 9.16433 7.34552 18.9942C2.60154 23.7556 0 30.0528 0 36.8109C0 43.5178 2.60154 49.8662 7.34552 54.6276C12.2425 59.5425 18.6699 62 25.0972 62C31.5245 62 37.9519 59.5425 42.8489 54.6276L60.6006 36.8109L60.7026 36.7085L70.7517 26.6226C76.3628 20.9909 85.4937 20.9909 91.0539 26.6226C96.6651 32.2543 96.6651 41.4187 91.0539 46.9992C88.2483 49.815 84.5756 51.1974 80.9028 51.1974C77.23 51.1974 73.5573 49.815 70.7517 46.9992L62.9471 39.166L55.3975 46.7432L63.2021 54.5764C72.9961 64.4063 88.9114 64.4063 98.6545 54.5764C103.398 49.815 106 43.5178 106 36.7597C105.949 30.0529 103.347 23.7044 98.6035 18.943Z"
          fill="url(#paint0_linear_1928_2901)"/>
    <defs>
        <linearGradient id="paint0_linear_1928_2901" x1="33.5057" y1="61.6796" x2="33.5057" y2="1.77922"
                        gradientUnits="userSpaceOnUse">
            <stop stop-color="#C11111"/>
            <stop offset="1" stop-color="#E63F16"/>
        </linearGradient>
    </defs>
</svg>

<svg xmlns="http://www.w3.org/2000/svg" fill="none" viewBox="0 0 106 62"><path fill="url(#a)" d="M98.604 18.943c-3.826-3.84-8.52-6.144-13.467-7.014-7.6-1.28-20.762-1.126-20.762-1.126 6.683-2.304 14.538-1.23 14.538-1.23-6.529-2.917-19.537-.87-19.537-.87 6.02-1.638 9.794-1.843 15.405-1.177 0 0-6.478-2.918-18.72-.973-1.174.154-2.194 1.485-2.857 1.946-1.632 1.075-2.908 1.536-4.795.819-.918-.358-1.887-.666-3.01-1.075.97-.922 2.04-1.075 3.214-.922.867.103 1.837 0 2.653-.153 1.428-.308 2.142-1.28 3.979-1.383 0 0 3.417 0 6.58-.204 3.162-.154 5.764-1.792 6.835-2.51-4.642-.05-8.876 1.537-13.722 1.486C59.835 4.249 62.59 2.765 66.058 0c-3.417 1.28-5.457 2.918-9.283 2.97-2.143.05-4.336.563-6.376.972-1.684.307-3.01 2.15-4.592 2.867-1.683.717-3.366.307-4.488-.87-1.48 1.536-1.53 3.328-.306 5.017.459-.614 1.02-1.28 1.734-2.099.459.768.765 1.126.97 1.434 1.427-.768 3.417-.256 4.386 1.024.663.819 0 1.177-.46 1.536-1.886 1.382-2.856 1.023-3.723.153l-.663 1.536-2.04-.051 3.723 3.788.153-1.484 1.735-.052c.663-1.535 2.346-1.689 3.52-1.177 1.224.563 2.04 1.997 2.958 2.97.051-.103.102-.41.153-.768.561-1.792 1.887-2.15 3.265-.922l2.091 2.048c1.224 1.177 1.276 3.174.102 4.403L45.45 36.81l-.102.102-10.1 10.035c-5.61 5.632-14.742 5.632-20.302 0-5.611-5.632-5.611-14.796 0-20.377 2.806-2.815 6.478-4.198 10.151-4.198s7.346 1.383 10.151 4.198l7.805 7.834 7.55-7.578-7.805-7.833c-9.794-9.83-25.71-9.83-35.452 0C2.602 23.756 0 30.053 0 36.811c0 6.707 2.602 13.055 7.346 17.817A24.98 24.98 0 0 0 25.097 62a24.98 24.98 0 0 0 17.752-7.372L60.6 36.81l.102-.102 10.049-10.086c5.61-5.632 14.742-5.632 20.302 0 5.611 5.631 5.611 14.796 0 20.376-2.806 2.816-6.478 4.198-10.151 4.198S73.557 49.815 70.752 47l-7.805-7.833-7.55 7.577 7.805 7.833c9.794 9.83 25.71 9.83 35.453 0C103.398 49.815 106 43.518 106 36.76c-.051-6.707-2.653-13.056-7.397-17.817"/><defs><linearGradient id="a" x1="33.506" x2="33.506" y1="61.68" y2="1.779" gradientUnits="userSpaceOnUse"><stop stop-color="#c11111"/><stop offset="1" stop-color="#e63f16"/></linearGradient></defs></svg>
